flags/lb.svg

<svg viewBox="0 0 750 500" xmlns="http://www.w3.org/2000/svg"><path d="m0 0h750v500h-750z" fill="#ed1c24"/><path d="m0 125h750v250h-750z" fill="#fff"/><path d="m371.5894 125c-5.36625 11.2997-15.47204 19.19789-25.13108 26.67157-1.58907 1.38781-5.53987 4.07569-2.67374 6.12114 2.45559-2.74435 9.19493.88988 5.2781 3.84075-3.50866 3.28414-8.3396 4.48654-12.23522 7.19638-3.4502 1.87446-6.9495 3.83189-9.6855 6.70121-.18637 4.48245 5.56162 2.00114 7.89416 3.86855 3.03751 3.24745-1.28796 8.72173-5.2743 7.46967-5.09711.15619-8.61744 4.64102-10.54493 8.91981-3.98712 6.1655-11.54241 7.99124-17.55736 11.49991-3.44175 2.00629-6.78099 4.22606-9.98493 6.56709-4.13077 2.82434-.53706 8.41626 3.85818 7.04364 4.7445-.47302 9.01314-4.20076 13.92508-3.12656 4.45468 1.56517 5.70492 7.38696 4.18673 11.45167-1.12404 3.25439-3.8489 5.54671-6.03209 8.08889-3.54406 3.59042-8.17891 5.92136-13.06609 7.03284-4.72336 1.58585-8.96852 4.47944-12.0667 8.38572-3.59595 3.61996-7.17752 7.29857-11.31051 10.31706-1.30555 3.33133 2.37887 6.16901 5.4507 6.08057 6.47232-.40757 10.95807-5.70485 16.47038-8.42699 4.57433-2.05589 9.95778 2.87435 8.83878 7.63989-.35398 4.63624-4.69482 6.98883-8.55431 8.41535-11.3459 5.70374-21.19705 13.97468-29.94399 23.10059-1.80907 3.69014-6.7825 2.60382-9.46051 5.17624-1.74463 3.2554 2.63377 4.97186 5.24583 4.63724 11.22504-1.35009 21.69931-6.09462 31.62204-11.31473 3.69007-1.76428 7.15511-4.08612 10.9915-5.49217 3.60357-.89024 8.62847.67626 9.27321 4.77754-.0051 4.32946-4.29426 6.72748-7.69113 8.41885-10.47519 5.50352-21.97118 8.54593-33.16736 12.18435-4.19145-1.17183-7.34911 6.28534-2.75105 7.62618 4.86211 1.66727 10.031.33054 15.0045.11201 15.37863-2.35609 28.82855-10.67773 43.20384-16.05696 5.97631-1.94807 13.03063.7705 15.98002 6.37046 2.96316 4.99155 2.69233 11.55558-.43346 16.40517-4.93985 10.56853-12.44986 20.28171-22.53169 26.35837-6.32838 3.13304-13.71524 4.33167-19.13893 9.12842-5.01611 1.65348 2.51469 8.43164 3.60327 3.05196 3.01421-4.11105 8.33044-5.33979 13.15272-5.50963 7.24722-.78893 14.94357-2.12574 20.57474-7.14283 5.04841-3.92026 10.02332-9.32846 16.87848-9.41286 3.78853.44927 7.5356 3.49348 11.38347 1.63595 3.36601-1.54069 8.6473-.63787 9.52653 3.50138 1.60737 4.84212 6.59827 7.04525 10.55617 9.63647 1.43262 2.01176 6.19301 7.20027 7.29079 2.62585-.88582-3.26263.37987-8.2551 4.65977-7.16485 3.7384.16692 7.30095 1.54537 11.03213 1.77146 4.96888 1.02921 9.11363 4.43088 11.93507 8.53823 1.94096 2.68041 6.19262 7.28592 9.35151 3.73166 1.96027-3.67585-1.7816-6.74148-4.82776-8.05406-4.44203-2.75272-8.23984-6.41858-12.1237-9.88958-5.72423-5.34612-10.66841-12.14595-11.57702-20.13252-1.23175-7.96327-.58354-16.0854.45571-24.02703 1.30796-5.11294 7.84609-7.90426 12.4178-5.18765 6.43278 2.93514 12.82118 7.13499 20.19603 6.6796 10.65672.22962 21.60744-1.81083 32.02208 1.27732 10.13448 3.19236 17.3802 11.74485 27.25229 15.4456 2.20996 1.34306 5.03719.06489 5.84697-2.29553.97841-2.12106.28806-4.83488-1.75566-6.04367-11.44118-11.54886-27.0775-17.1593-40.31543-26.18373-4.16766-1.05838-4.92647-7.76357-1.0738-9.69941 5.06555-3.6812 12.23237-1.96757 16.72634 1.82787 3.79511 2.22306 8.07073 3.88855 12.52333 3.89252 4.56089-1.42776 2.34972-8.02755-1.73396-8.52383-7.39922-4.17783-12.69854-11.0336-19.10912-16.46661-3.69073-3.12497-7.73032-6.28893-12.69062-6.89546-2.71119-.49371-5.48476-.60175-8.23176-.41738-2.57634-2.79982.85729-7.08688 4.18847-6.73634 3.41839.23026 6.81724.48435 10.23118.00865 3.81517-.27951 7.62705-.67444 11.4558-.70064 3.09056 2.10471 9.26644-1.53103 6.47712-5.1598-3.047-2.66998-7.45317-2.43806-11.0944-3.80826-6.39664-2.09862-12.90639-3.79475-19.49757-5.12501-4.61129-.27496-4.04254-6.3438.01043-7.01315 2.65242-.98945 4.95782 1.04837 7.50395 1.36429 4.34843.93443 8.83791.92243 13.18418 1.86979 3.68506-1.81914.83638-7.20299-2.49717-7.5167-7.86548-2.81255-14.66289-7.88884-21.30805-12.82692-7.33672-5.51766-13.99294-11.89854-21.41962-17.2887-2.69469-1.66989-7.11143-2.15083-7.82031-5.85155-.25-3.40447 3.75734-4.95497 6.59797-4.15903 4.03042 1.19024 7.78603 3.26287 11.8938 4.28046 3.2228.5477 6.54573 1.50133 9.65207 1.09521 3.94317-2.47755-1.69121-4.06107-3.73057-4.92068-5.25742-2.83545-9.9288-6.61325-14.66015-10.21578-3.99829-3.41287 3.39127-4.92066 5.9332-3.60658 4.2499 1.77795 4.7342-4.41489 1.5574-5.97324-3.74312-1.5916-6.96207-4.23374-10.35615-6.53791-6.13248-4.36548-13.07825-7.82117-20.61705-8.78107-8.45213-.8493-16.34126-5.70972-20.8252-12.93782-2.78058-4.1191-4.8212-8.67434-6.79387-13.21818zm-27.7573 47.41771c4.35633.12924 3.68662 7.98022-.60227 7.45642-4.16502-.26804-3.91011-8.29984.60227-7.45642zm41.09024 4.22793c4.23893-.75826 5.13655 6.9771.90145 7.34025-4.41258.78986-6.04799-7.82974-.90145-7.34025zm-12.03503 1.0082c4.29735.8454 3.5329 8.33172-.80403 8.39714-3.17306.70654-6.59303 2.87216-9.8032 1.2491-2.61056-2.761 1.16263-6.84373 4.07668-7.74125 2.23515-.45054 4.29156-1.46539 6.53055-1.90499zm27.69832.03253c4.14125 1.51072 2.68066 8.82141-1.68753 8.72822-4.13086.55352-6.05453-6.33753-2.2025-7.97193 1.247-.44214 2.55343-.81472 3.89003-.75629zm-46.72433 8.29321c3.04519 2.89796 1.24659 8.49051-2.50819 9.82757-2.70647 1.50551-6.39629 5.06666-9.34419 2.13654-1.59949-3.57914 2.41531-6.27423 4.7768-8.26086 2.10757-1.63874 4.43337-3.1263 7.07558-3.70325zm34.77775 16.16367c4.35988 2.05865 2.14669 9.91584-2.63843 9.42744-3.93001-.99583-3.41691-7.73625.54165-8.27391.74828-.28639 1.43463-.70797 2.09678-1.15353zm-13.83442.78051c4.07761 1.90907.96423 8.71378-3.14283 7.73324-4.25835-.50009-4.17984-7.98676.51635-7.31089.8849-.04389 1.79873-.0664 2.62648-.42235zm29.82215 3.90271c4.46922-1.38684 9.84982 3.21755 8.39934 7.88672-1.99069 3.61976-6.91666 4.07805-10.44491 2.72523-4.05138-.2-6.77643-6.29062-3.16717-8.86967 1.49352-1.12803 3.37618-1.5916 5.21274-1.74228zm-66.01578 1.17078c3.69531-2.01043 7.61884 4.03204 4.47617 6.69726-2.08166 3.06041-7.42705 4.31074-9.784.90738-1.95812-3.32406 1.20787-8.90868 5.30783-7.60464zm-17.04965 2.862c4.19184.57349 6.92322 4.3809 8.47241 8.00626.37817 4.41811-6.1409 6.84232-8.98477 3.6278-3.19785-2.00618-5.99708-6.13199-4.3206-9.96118 1.03292-1.52053 3.0907-2.14787 4.83296-1.67288zm102.00296 15.96852c4.54933-1.19889 7.85221 6.07162 3.94587 8.70176-3.57171 3.2442-10.51642-1.0538-8.65374-5.68266.92574-1.71607 2.77757-2.85661 4.70787-3.0191zm-57.90394 8.29323c3.81461.4858 2.57873 7.09714-.94845 6.87523-3.78556-.70169-2.91885-7.2481.94845-6.87523zm-19.35047 3.5124c3.11134-2.20143 7.1241 3.17169 4.53605 5.6755-3.10199 2.18464-7.12563-3.10325-4.53605-5.6755zm30.76608.65045c3.60637 2.19129 5.7474 6.2771 6.19568 10.40004-1.72832 3.85189-8.403 2.92335-9.15551-1.17858-1.31976-3.24407-.10346-7.41773 2.95983-9.22146zm10.73715 6.37441c4.64742-1.16742 2.97966 8.54659-.90075 5.17719-1.28953-1.53131-.59889-4.05101.90075-5.17719zm-67.43167 6.76467c3.07738-.90137 7.56319.04606 8.41264 3.57792.35882 3.31928-3.2913 5.04611-5.9659 5.86871-4.28683 1.32275-8.47945 3.49438-13.08937 3.20265-3.45532-1.97492-4.6956-6.01636-5.92755-9.54118 3.33473-3.12658 8.24515-2.2094 12.3789-2.99197 1.39595-.07156 2.79361-.1056 4.19128-.11613zm104.59872 15.2205c3.92557-1.9246 8.1471 4.30637 4.86119 7.2168-4.11083 4.73148-12.02538 5.6107-16.94072 1.63582-.59091-4.18725 3.59171-7.22841 7.30703-7.82936 1.56288-.4415 3.11617-1.1011 4.7725-1.02326zm22.06425 4.78079c4.46021-.76762 7.97362 5.59529 4.78829 8.88838-3.01451 4.54541-10.2033 5.73754-14.3136 2.01162-1.60253-3.76837 1.64829-7.69488 5.10816-8.90391 1.4871-.63289 2.89513-1.44405 4.41715-1.99609zm-110.94071 6.76468c4.13059-.40762 7.91471 3.69065 7.37261 7.76297 2.99018 2.94257-2.30489 8.42456-5.28395 5.37746-2.62524-3.18097-2.61143-7.49635-3.62831-11.30329-.0455-.84562.58052-1.94096 1.53965-1.83714zm31.70997 2.37415c4.27033-1.84625 9.79507 3.26246 7.47018 7.58747-1.66027 3.52257-8.13554 2.34188-7.92037-1.73835-.01105-1.95182-.16861-3.95361.45019-5.84912zm-15.42727 2.76438c4.28194-.98171 8.21053 4.56901 5.83101 8.27278-4.26897.37953-6.48524-4.68691-5.83101-8.27278z" fill="#00a651"/></svg>

<svg xmlns="http://www.w3.org/2000/svg" xmlns:xlink="http://www.w3.org/1999/xlink" viewBox="0 0 750 500">
<rect fill="#ed1c24" width="750" height="500"/>
<rect fill="#fff" y="125" width="750" height="250"/>
<path fill="#00a651" d="M 371.5894,125 C 366.22315,136.2997 356.11736,144.19789 346.45832,151.67157 C 344.86925,153.05938 340.91845,155.74726 343.78458,157.79271 C 346.24017,155.04836 352.97951,158.68259 349.06268,161.63346 C 345.55402,164.9176 340.72308,166.12 336.82746,168.82984 C 333.37726,170.7043 329.87796,172.66173 327.14196,175.53105 C 326.95559,180.0135 332.70358,177.53219 335.03612,179.3996 C 338.07363,182.64705 333.74816,188.12133 329.76182,186.86927 C 324.66471,187.02546 321.14438,191.51029 319.21689,195.78908 C 315.22977,201.95458 307.67448,203.78032 301.65953,207.28899 C 298.21778,209.29528 294.87854,211.51505 291.6746,213.85608 C 287.54383,216.68042 291.13754,222.27234 295.53278,220.89972 C 300.27728,220.4267 304.54592,216.69896 309.45786,217.77316 C 313.91254,219.33833 315.16278,225.16012 313.64459,229.22483 C 312.52055,232.47922 309.79569,234.77154 307.6125,237.31372 C 304.06844,240.90414 299.43359,243.23508 294.54641,244.34656 C 289.82305,245.93241 285.57789,248.826 282.47971,252.73228 C 278.88376,256.35224 275.30219,260.03085 271.1692,263.04934 C 269.86365,266.38067 273.54807,269.21835 276.6199,269.12991 C 283.09222,268.72234 287.57797,263.42506 293.09028,260.70292 C 297.66461,258.64703 303.04806,263.57727 301.92906,268.34281 C 301.57508,272.97905 297.23424,275.33164 293.37475,276.75816 C 282.02885,282.4619 272.1777,290.73284 263.43076,299.85875 C 261.62169,303.54889 256.64826,302.46257 253.97025,305.03499 C 252.22562,308.29039 256.60402,310.00685 259.21608,309.67223 C 270.44112,308.32214 280.91539,303.57761 290.83812,298.3575 C 294.52819,296.59322 297.99323,294.27138 301.82962,292.86533 C 305.43319,291.97509 310.45809,293.54159 311.10283,297.64287 C 311.09773,301.97233 306.80857,304.37035 303.4117,306.06172 C 292.93651,311.56524 281.44052,314.60765 270.24434,318.24607 C 266.05289,317.07424 262.89523,324.53141 267.49329,325.87225 C 272.3554,327.53952 277.52429,326.20279 282.49779,325.98426 C 297.87642,323.62817 311.32634,315.30653 325.70163,309.9273 C 331.67794,307.97923 338.73226,310.6978 341.68165,316.29776 C 344.64481,321.28931 344.37398,327.85334 341.24819,332.70293 C 336.30834,343.27146 328.79833,352.98464 318.7165,359.0613 C 312.38812,362.19434 305.00126,363.39297 299.57757,368.18972 C 294.56146,369.8432 302.09226,376.62136 303.18084,371.24168 C 306.19505,367.13063 311.51128,365.90189 316.33356,365.73205 C 323.58078,364.94312 331.27713,363.60631 336.9083,358.58922 C 341.95671,354.66896 346.93162,349.26076 353.78678,349.17636 C 357.57531,349.62563 361.32238,352.66984 365.17025,350.81231 C 368.53626,349.27162 373.81755,350.17444 374.69678,354.31369 C 376.30415,359.15581 381.29505,361.35894 385.25295,363.95016 C 386.68557,365.96192 391.44596,371.15043 392.54374,366.57601 C 391.65792,363.31338 392.92361,358.32091 397.20351,359.41116 C 400.94191,359.57808 404.50446,360.95653 408.23564,361.18262 C 413.20452,362.21183 417.34927,365.6135 420.17071,369.72085 C 422.11167,372.40126 426.36333,377.00677 429.52222,373.45251 C 431.48249,369.77666 427.74062,366.71103 424.69446,365.39845 C 420.25243,362.64573 416.45462,358.97987 412.57076,355.50887 C 406.84653,350.16275 401.90235,343.36292 400.99374,335.37635 C 399.76199,327.41308 400.4102,319.29095 401.44945,311.34932 C 402.75741,306.23638 409.29554,303.44506 413.86725,306.16167 C 420.30003,309.09681 426.68843,313.29666 434.06328,312.84127 C 444.72,313.07089 455.67072,311.03044 466.08536,314.11859 C 476.21984,317.31095 483.46556,325.86344 493.33765,329.56419 C 495.54761,330.90725 498.37484,329.62908 499.18462,327.26866 C 500.16303,325.1476 499.47268,322.43378 497.42896,321.22499 C 485.98778,309.67613 470.35146,304.06569 457.11353,295.04126 C 452.94587,293.98288 452.18706,287.27769 456.03973,285.34185 C 461.10528,281.66065 468.2721,283.37428 472.76607,287.16972 C 476.56118,289.39278 480.8368,291.05827 485.2894,291.06224 C 489.85029,289.63448 487.63912,283.03469 483.55544,282.53841 C 476.15622,278.36058 470.8569,271.50481 464.44632,266.0718 C 460.75559,262.94683 456.716,259.78287 451.7557,259.17634 C 449.04451,258.68263 446.27094,258.57459 443.52394,258.75896 C 440.9476,255.95914 444.38123,251.67208 447.71241,252.02262 C 451.1308,252.25288 454.52965,252.50697 457.94359,252.03127 C 461.75876,251.75176 465.57064,251.35683 469.39939,251.33063 C 472.48995,253.43534 478.66583,249.7996 475.87651,246.17083 C 472.82951,243.50085 468.42334,243.73277 464.78211,242.36257 C 458.38547,240.26395 451.87572,238.56782 445.28454,237.23756 C 440.67325,236.9626 441.242,230.89376 445.29497,230.22441 C 447.94739,229.23496 450.25279,231.27278 452.79892,231.5887 C 457.14735,232.52313 461.63683,232.51113 465.9831,233.45849 C 469.66816,231.63935 466.81948,226.2555 463.48593,225.94179 C 455.62045,223.12924 448.82304,218.05295 442.17788,213.11487 C 434.84116,207.59721 428.18494,201.21633 420.75826,195.82617 C 418.06357,194.15628 413.64683,193.67534 412.93795,189.97462 C 412.68795,186.57015 416.69529,185.01965 419.53592,185.81559 C 423.56634,187.00583 427.32195,189.07846 431.42972,190.09605 C 434.65252,190.64375 437.97545,191.59738 441.08179,191.19126 C 445.02496,188.71371 439.39058,187.13019 437.35122,186.27058 C 432.0938,183.43513 427.42242,179.65733 422.69107,176.0548 C 418.69278,172.64193 426.08234,171.13414 428.62427,172.44822 C 432.87417,174.22617 433.35847,168.03333 430.18167,166.47498 C 426.43855,164.88338 423.2196,162.24124 419.82552,159.93707 C 413.69304,155.57159 406.74727,152.1159 399.20847,151.156 C 390.75634,150.3067 382.86721,145.44628 378.38327,138.21818 C 375.60269,134.09908 373.56207,129.54384 371.5894,125 z M 343.8321,172.41771 C 348.18843,172.54695 347.51872,180.39793 343.22983,179.87413 C 339.06481,179.60609 339.31972,171.57429 343.8321,172.41771 z M 384.92234,176.64564 C 389.16127,175.88738 390.05889,183.62274 385.82379,183.98589 C 381.41121,184.77575 379.7758,176.15615 384.92234,176.64564 z M 372.88731,177.65384 C 377.18466,178.49924 376.42021,185.98556 372.08328,186.05098 C 368.91022,186.75752 365.49025,188.92314 362.28008,187.30008 C 359.66952,184.53908 363.44271,180.45635 366.35676,179.55883 C 368.59191,179.10829 370.64832,178.09344 372.88731,177.65384 z M 400.58563,177.68637 C 404.72688,179.19709 403.26629,186.50778 398.8981,186.41459 C 394.76724,186.96811 392.84357,180.07706 396.6956,178.44266 C 397.9426,178.00052 399.24903,177.62794 400.58563,177.68637 z M 353.8613,185.97958 C 356.90649,188.87754 355.10789,194.47009 351.35311,195.80715 C 348.64664,197.31266 344.95682,200.87381 342.00892,197.94369 C 340.40943,194.36455 344.42423,191.66946 346.78572,189.68283 C 348.89329,188.04409 351.21909,186.55653 353.8613,185.97958 z M 388.63905,202.14325 C 392.99893,204.2019 390.78574,212.05909 386.00062,211.57069 C 382.07061,210.57486 382.58371,203.83444 386.54227,203.29678 C 387.29055,203.01039 387.9769,202.58881 388.63905,202.14325 z M 374.80463,202.92376 C 378.88224,204.83283 375.76886,211.63754 371.6618,210.657 C 367.40345,210.15691 367.48196,202.67024 372.17815,203.34611 C 373.06305,203.30222 373.97688,203.27971 374.80463,202.92376 z M 404.62678,206.82647 C 409.096,205.43963 414.4766,210.04402 413.02612,214.71319 C 411.03543,218.33295 406.10946,218.79124 402.58121,217.43842 C 398.52983,217.23842 395.80478,211.1478 399.41404,208.56875 C 400.90756,207.44072 402.79022,206.97715 404.62678,206.82647 z M 338.611,207.99725 C 342.30631,205.98682 346.22984,212.02929 343.08717,214.69451 C 341.00551,217.75492 335.66012,219.00525 333.30317,215.60189 C 331.34505,212.27783 334.51104,206.69321 338.611,207.99725 z M 321.56135,210.85925 C 325.75319,211.43274 328.48457,215.24015 330.03376,218.86551 C 330.41193,223.28362 323.89286,225.70783 321.04899,222.49331 C 317.85114,220.48713 315.05191,216.36132 316.72839,212.53213 C 317.76131,211.0116 319.81909,210.38426 321.56135,210.85925 z M 423.56431,226.82777 C 428.11364,225.62888 431.41652,232.89939 427.51018,235.52953 C 423.93847,238.77373 416.99376,234.47573 418.85644,229.84687 C 419.78218,228.1308 421.63401,226.99026 423.56431,226.82777 z M 365.66037,235.121 C 369.47498,235.6068 368.2391,242.21814 364.71192,241.99623 C 360.92636,241.29454 361.79307,234.74813 365.66037,235.121 z M 346.3099,238.6334 C 349.42124,236.43197 353.434,241.80509 350.84595,244.3089 C 347.74396,246.49354 343.72032,241.20565 346.3099,238.6334 z M 377.07598,239.28385 C 380.68235,241.47514 382.82338,245.56095 383.27166,249.68389 C 381.54334,253.53578 374.86866,252.60724 374.11615,248.50531 C 372.79639,245.26124 374.01269,241.08758 377.07598,239.28385 z M 387.81313,245.65826 C 392.46055,244.49084 390.79279,254.20485 386.91238,250.83545 C 385.62285,249.30414 386.31349,246.78444 387.81313,245.65826 z M 320.38146,252.42293 C 323.45884,251.52156 327.94465,252.46899 328.7941,256.00085 C 329.15292,259.32013 325.5028,261.04696 322.8282,261.86956 C 318.54137,263.19231 314.34875,265.36394 309.73883,265.07221 C 306.28351,263.09729 305.04323,259.05585 303.81128,255.53103 C 307.14601,252.40445 312.05643,253.32163 316.19018,252.53906 C 317.58613,252.4675 318.98379,252.43346 320.38146,252.42293 z M 424.98018,267.64343 C 428.90575,265.71883 433.12728,271.9498 429.84137,274.86023 C 425.73054,279.59171 417.81599,280.47093 412.90065,276.49605 C 412.30974,272.3088 416.49236,269.26764 420.20768,268.66669 C 421.77056,268.22519 423.32385,267.56559 424.98018,267.64343 z M 447.04443,272.42422 C 451.50464,271.6566 455.01805,278.01951 451.83272,281.3126 C 448.81821,285.85801 441.62942,287.05014 437.51912,283.32422 C 435.91659,279.55585 439.16741,275.62934 442.62728,274.42031 C 444.11438,273.78742 445.52241,272.97626 447.04443,272.42422 z M 336.10372,279.1889 C 340.23431,278.78128 344.01843,282.87955 343.47633,286.95187 C 346.46651,289.89444 341.17144,295.37643 338.19238,292.32933 C 335.56714,289.14836 335.58095,284.83298 334.56407,281.02604 C 334.51857,280.18042 335.14459,279.08508 336.10372,279.1889 z M 367.81369,281.56305 C 372.08402,279.7168 377.60876,284.82551 375.28387,289.15052 C 373.6236,292.67309 367.14833,291.4924 367.3635,287.41217 C 367.35245,285.46035 367.19489,283.45856 367.81369,281.56305 z M 352.38642,284.32743 C 356.66836,283.34572 360.59695,288.89644 358.21743,292.60021 C 353.94846,292.97974 351.73219,287.9133 352.38642,284.32743 z"/>
</svg>
